X:1
T:Title
%%score { ( 1 3 ) | ( 2 4 ) }
L:1/8
Q:1/4=100
M:4/4
K:Eb
V:1 treble nm="Grand Piano"
V:3 treble 
V:2 bass 
V:4 bass 
V:1
 [B,EG]4 [A,DF]2 [G,E]2 | [A,F]2- [A,DF]2 E4 | F4 G2 A2 | G2 c2 B4 | G4 A2 G2 | F2 E2 [DF]4 | %6
w: Robert~Lowry * *||||||
 z2 =E2 B2 =A2 | [DB]8 | [DF]4 [FA]2 [EG]2 | [EG]2 [DF]2 [DF]4 | [EG]4 z4 | %11
w: |||||
 [B,EG]2 [=A,EF]2 [B,DF]4 | [B,EG]4 [A,EA]2 B2 | c2 [Ad]2 [Ge]4 | [EG]4 [DF]3 E | E8 |] %16
w: |||||
V:2
 E,4 B,,2 C,2 | A,,2 B,,2 [E,G,]4 | [A,B,D]4 [G,B,E]2 [F,B,D]2 | [E,B,E]2 [E,A,E]2 [E,G,E]4 | %4
 [E,B,E]4 [E,CE]2 [E,B,E]2 | [D,B,]2 [C,=A,C]2 [B,,B,]4 | [E,B,E]2 [C,C]2 [F,DF]2 [F,CE]2 | %7
 [B,,B,]8 | [B,,B,]4 [D,B,]2 [E,B,]2 | [B,,B,]2 [B,,B,]2 [B,,B,]4 | E,4 z4 | B,,2 C,2 B,,4 | %12
 E,4 C,2 [E,G,E]2 | [A,E]2 [F,B,]2 [E,B,]4 | [B,,B,]4 [B,,A,]3 [E,G,] | [E,G,]8 |] %16
V:3
 x8 | C2 z2 z4 | x8 | x8 | x8 | x8 | G4 z4 | x8 | x8 | x8 | B,2 z2 [CEB]2 [CEA]2 | x8 | x8 | x8 | %14
 x8 | x8 |] %16
V:4
 x8 | x8 | x8 | x8 | x8 | x8 | x8 | x8 | x8 | x8 | z2 _D2 A,,2 A,,2 | x8 | x8 | x8 | x8 | x8 |] %16

